X:1
T:Leitrim Fancy, The
R:jig
M:6/8
L:1/8
K:Dmaj
GAG FAF|E2B BAB|GAG FAF|D2A AFD|
GAG FAF|E2B BAB|G2B dBG|ABG FED:|
G2B dBd|edB dBA|G2B dBG|ABG FED|
G2B dBd|edB def|gfe dcB|ABG FED:|
